X: 11
T: The Kesh
R: jig
M: 6/8
L: 1/8
K: Gmaj
|: D | G2 G GAB | ABA ABd | edd gdd | edB dBA |
GAG GAB | ABA ABd | edd gd B | AGF G2 :|
|: A | B2 B dBd | ege dBG | BAB dBG | ABA AGA |
B2 B dBd | ege dBd | gfg aga | bgg g2 :|


Tune 55	Setting 22733

